photonStudio/src/main/resources/templates/assets/common/cube/AriColour_4k_Cine_AriGold.cube
TITLE "Generate by Resolve"
LUT_3D_SIZE 9
0.0290532 0.0340887 0.0357671
0.058732 0.0313115 0.0314336
0.0867475 0.0281224 0.0260319
0.148486 0.0330205 0.0241093
0.215747 0.0344854 0.0242313
0.312459 0.0390784 0.0258793
0.381048 0.0381476 0.0272526
0.433936 0.037644 0.0280919
0.465019 0.0370642 0.027863
0.0231022 0.0654307 0.0367132
0.0593576 0.0726482 0.0333562
0.135592 0.0737011 0.0288396
0.224491 0.0760204 0.0251164
0.317372 0.0746014 0.0253452
0.396307 0.0733959 0.0274815
0.460304 0.070573 0.0287938
0.505821 0.0675975 0.0291447
0.526757 0.0655222 0.0283665
0.0181888 0.121187 0.0475319
0.0488899 0.129442 0.0499123
0.163546 0.168215 0.0541238
0.335439 0.179706 0.0435035
0.462959 0.160662 0.0340276
0.537957 0.141161 0.0333867
0.586435 0.125902 0.0327306
0.620371 0.114534 0.0319066
0.644144 0.111467 0.0310063
0.0176089 0.184192 0.0620127
0.0436103 0.190066 0.0623178
0.158999 0.242374 0.0713817
0.372305 0.293935 0.0636149
0.552132 0.271717 0.0492103
0.637385 0.246235 0.0434272
0.68452 0.216907 0.0383154
0.717769 0.192569 0.0351263
0.744732 0.187732 0.034287
0.0226749 0.260563 0.0803235
0.0461585 0.262257 0.0780346
0.135836 0.309468 0.0941176
0.380331 0.392279 0.102266
0.608179 0.414725 0.0925612
0.724758 0.392889 0.0801556
0.791913 0.373922 0.0692149
0.832776 0.347951 0.0568246
0.858518 0.334493 0.0522011
0.0294652 0.342901 0.0949111
0.0559701 0.347051 0.0946517
0.118059 0.38294 0.115846
0.397177 0.482246 0.152911
0.667048 0.558099 0.148943
0.801251 0.562829 0.154421
0.868757 0.550896 0.152712
0.908873 0.533013 0.139101
0.933257 0.51603 0.122835
0.106783 0.458656 0.129381
0.133501 0.460365 0.126802
0.219364 0.499321 0.14696
0.441245 0.57702 0.193576
0.712428 0.664576 0.227848
0.837293 0.697246 0.256825
0.898619 0.697597 0.284291
0.934737 0.687694 0.286809
0.959915 0.687861 0.290455
0.300557 0.597086 0.176165
0.320699 0.594156 0.171069
0.453468 0.639902 0.193423
0.588815 0.690791 0.244465
0.753506 0.751598 0.314015
0.847929 0.781552 0.350179
0.908949 0.775906 0.360494
0.940749 0.774441 0.388632
0.964248 0.778271 0.398291
0.496101 0.698207 0.19913
0.541817 0.705989 0.197864
0.651499 0.747753 0.231403
0.716579 0.777356 0.281315
0.779049 0.80322 0.34229
0.847547 0.817929 0.36495
0.908095 0.809277 0.371786
0.938659 0.807752 0.403235
0.961471 0.807553 0.408499
0.0254063 0.0306096 0.0598611
0.0605783 0.0300755 0.0646677
0.116091 0.0302281 0.0645151
0.165972 0.0314488 0.0582132
0.223407 0.0327001 0.0509346
0.298741 0.034165 0.0486763
0.357519 0.0331426 0.0489815
0.402716 0.0327764 0.0493935
0.433051 0.032929 0.0489815
0.0199741 0.0678416 0.0764477
0.0526741 0.0676127 0.0734112
0.132677 0.0678111 0.0645609
0.217014 0.0699931 0.0554208
0.302037 0.0691691 0.0497292
0.382879 0.0675212 0.049897
0.44802 0.0653239 0.0508431
0.489006 0.0634928 0.050721
0.511467 0.0619516 0.0497292
0.0175631 0.126757 0.100084
0.0432746 0.12987 0.0951247
0.150179 0.160204 0.0914778
0.319402 0.172625 0.0771038
0.447639 0.157565 0.0603494
0.527596 0.136141 0.055375
0.580652 0.121889 0.0542458
0.615106 0.111238 0.0529946
0.639612 0.108873 0.0517586
0.0173342 0.194522 0.120027
0.0403296 0.194903 0.111162
0.135561 0.233906 0.107729
0.359045 0.289403 0.0957504
0.544015 0.26952 0.0740826
0.631937 0.244465 0.066041
0.68072 0.215549 0.0592355
0.715679 0.191379 0.055024
0.743587 0.187106 0.0536355
0.0196078 0.265003 0.123629
0.0430762 0.264332 0.114092
0.122911 0.305257 0.119265
0.369772 0.389593 0.12781
0.603601 0.4159 0.115801
0.72311 0.3944 0.101701
0.790387 0.374121 0.0889601
0.831174 0.347112 0.0753338
0.857298 0.333516 0.0699931
0.0247349 0.349294 0.141741
0.0496071 0.349523 0.132357
0.106188 0.380835 0.141588
0.377005 0.477974 0.176135
0.661753 0.558236 0.170565
0.799985 0.564843 0.174563
0.868406 0.554253 0.173602
0.908965 0.536156 0.159304
0.933913 0.519493 0.143374
0.0802319 0.461479 0.180377
0.112032 0.460517 0.166201
0.205676 0.498146 0.170962
0.433951 0.576425 0.212802
0.707256 0.663203 0.246113
0.835813 0.696834 0.273747
0.898253 0.698009 0.301961
0.934646 0.688228 0.305684
0.959945 0.689052 0.311559
0.300908 0.612558 0.224079
0.313115 0.600366 0.205585
0.454414 0.641306 0.21323
0.591974 0.692699 0.263233
0.753368 0.75201 0.332586
0.847776 0.782284 0.369955
0.908431 0.775555 0.37998
0.940322 0.773602 0.408499
0.963867 0.777386 0.419226
0.510155 0.70837 0.231189
0.547784 0.709789 0.222187
0.65742 0.750561 0.253544
0.717281 0.77734 0.300969
0.778561 0.802762 0.362356
0.846403 0.817502 0.386374
0.906859 0.809171 0.393149
0.938048 0.807294 0.424887
0.960891 0.807202 0.43122
0.0221256 0.0263523 0.0869306
0.0577859 0.0276036 0.100511
0.122576 0.0314946 0.1149
0.181827 0.0324407 0.113985
0.256779 0.0319677 0.0996567
0.324498 0.0312963 0.0859388
0.371206 0.029633 0.076112
0.394644 0.0293584 0.0717937
0.417197 0.0299229 0.0711986
0.0182803 0.0561074 0.103914
0.0478218 0.0569314 0.107713
0.13434 0.0572213 0.120027
0.228687 0.0601663 0.116594
0.307759 0.0590524 0.0990311
0.377264 0.057908 0.0852827
0.425681 0.0543069 0.0757
0.444617 0.0527504 0.0717174
0.460899 0.0522621 0.0703899
0.018265 0.124102 0.160571
0.0419318 0.129793 0.161776
0.12372 0.144625 0.15993
0.287968 0.156268 0.144183
0.410361 0.143969 0.113924
0.488365 0.120653 0.0907759
0.54551 0.103914 0.0796216
0.575769 0.0920882 0.0742809
0.595132 0.0898756 0.0725567
0.0184482 0.211978 0.212421
0.0406043 0.212009 0.205478
0.0887007 0.227283 0.189868
0.315709 0.278889 0.174945
0.514809 0.272648 0.140124
0.607431 0.240116 0.109621
0.656626 0.206668 0.0914626
0.694072 0.179553 0.0796826
0.725673 0.173846 0.0758831
0.0174563 0.289433 0.226947
0.0391699 0.287053 0.217624
0.0804303 0.305745 0.193072
0.316884 0.381491 0.187625
0.577691 0.421164 0.168826
0.714397 0.406378 0.156481
0.782696 0.381949 0.134203
0.820645 0.344717 0.1084
0.847211 0.323964 0.0948043
0.0186007 0.36968 0.254963
0.0416266 0.369451 0.244984
0.0801556 0.390082 0.228824
0.27718 0.465553 0.228138
0.631281 0.562905 0.234943
0.792187 0.580331 0.234333
0.868025 0.568139 0.229221
0.908553 0.541375 0.198871
0.933532 0.524193 0.180941
0.0339055 0.475273 0.29723
0.0593423 0.470497 0.280232
0.135454 0.497246 0.259831
0.363424 0.571542 0.260914
0.67393 0.665507 0.304402
0.832547 0.707866 0.320455
0.900267 0.703182 0.329839
0.935836 0.688899 0.321263
0.960952 0.692454 0.327169
0.298817 0.636149 0.307515
0.305257 0.626734 0.295811
0.463416 0.660853 0.275792
0.618784 0.710781 0.302663
0.760113 0.761212 0.359823
0.854429 0.785718 0.378454
0.912917 0.767224 0.37113
0.941543 0.763729 0.396277
0.96466 0.768093 0.409415
0.564416 0.74432 0.306722
0.594812 0.741619 0.29279
0.693462 0.772107 0.303593
0.732021 0.783749 0.323568
0.792355 0.805234 0.370306
0.857969 0.81561 0.382803
0.911559 0.798474 0.386053
0.938506 0.796262 0.418082
0.961013 0.799588 0.433066
0.0210117 0.0251926 0.113832
0.0515755 0.0261692 0.127337
0.100435 0.0290684 0.143374
0.163912 0.0315404 0.151751
0.248936 0.0320287 0.149218
0.335363 0.0312963 0.137942
0.403983 0.0304875 0.123354
0.427878 0.0293126 0.105043
0.443091 0.0288396 0.0967727
0.0175326 0.0505379 0.127077
0.0446937 0.0512551 0.134966
0.112596 0.0538033 0.155138
0.20766 0.0553292 0.162249
0.305531 0.0542763 0.152621
0.384833 0.05449 0.137377
0.445472 0.0529946 0.119066
0.462882 0.0515602 0.10016
0.47097 0.0501411 0.0938735
0.018616 0.107073 0.187396
0.0416419 0.112856 0.193088
0.0925765 0.127642 0.201923
0.2607 0.139986 0.205814
0.397375 0.132097 0.180911
0.478019 0.113085 0.152697
0.529595 0.0932326 0.123278
0.54609 0.0793927 0.0999924
0.557 0.076585 0.0943923
0.0201267 0.210941 0.27158
0.0421302 0.212665 0.269596
0.0734569 0.231861 0.273411
0.258305 0.267628 0.265675
0.483192 0.270863 0.232197
0.575021 0.233127 0.187137
0.62327 0.191043 0.146044
0.655192 0.156771 0.110292
0.686503 0.149599 0.099321
0.0194705 0.313741 0.324819
0.0405737 0.312825 0.319905
0.0683757 0.327749 0.309392
0.205982 0.374502 0.285756
0.540413 0.432303 0.258549
0.69778 0.417975 0.227878
0.765805 0.38265 0.194537
0.79913 0.335348 0.152697
0.828794 0.316213 0.129915
0.0193942 0.395026 0.359686
0.0408026 0.395987 0.355001
0.0708629 0.412757 0.344381
0.209873 0.467109 0.2934
0.592905 0.561471 0.290913
0.776165 0.590158 0.295308
0.862226 0.581186 0.299992
0.906554 0.555001 0.267521
0.932128 0.545357 0.252964
0.0281224 0.4934 0.40531
0.0467231 0.491157 0.396643
0.0890059 0.506477 0.37142
0.30515 0.575677 0.32665
0.631434 0.665217 0.364385
0.822003 0.720012 0.386252
0.900481 0.71281 0.383658
0.936904 0.700832 0.371069
0.961929 0.705577 0.373922
0.280247 0.650538 0.382589
0.308736 0.654719 0.381109
0.446952 0.675319 0.356298
0.613046 0.721721 0.36347
0.745037 0.764202 0.405921
0.85214 0.79028 0.416815
0.914519 0.769329 0.397055
0.941833 0.761379 0.406531
0.964797 0.760357 0.406394
0.574182 0.763378 0.384451
0.607645 0.760235 0.366232
0.661448 0.771542 0.367056
0.707149 0.780346 0.369985
0.778424 0.803311 0.404974
0.860197 0.814755 0.405798
0.914168 0.790448 0.392233
0.939162 0.783398 0.404334
0.961715 0.782361 0.405081
0.0201724 0.0244907 0.140673
0.0459602 0.0249332 0.151461
0.0817273 0.026627 0.166476
0.137179 0.0291295 0.176501
0.217639 0.031754 0.184161
0.312734 0.0311589 0.182162
0.381064 0.0301671 0.172793
0.427222 0.030045 0.150988
0.454414 0.0299077 0.13901
0.0168307 0.0457008 0.148714
0.04065 0.0469062 0.157809
0.0854353 0.0515145 0.183352
0.173114 0.0535897 0.196658
0.275319 0.0533303 0.194842
0.370901 0.052842 0.186419
0.435538 0.0522927 0.171008
0.470848 0.0521248 0.145937
0.490501 0.0513466 0.132036
0.018265 0.091783 0.206516
0.0409857 0.098146 0.215991
0.0717937 0.113268 0.237247
0.196963 0.127489 0.251423
0.375875 0.118791 0.234562
0.470359 0.107118 0.211246
0.526619 0.0893873 0.180987
0.55053 0.0775006 0.14226
0.5673 0.0756542 0.125841
0.0206149 0.197986 0.31136
0.0424353 0.198383 0.309972
0.0682689 0.215747 0.322667
0.158312 0.248249 0.329809
0.448035 0.267033 0.313695
0.557443 0.234119 0.275059
0.614466 0.192004 0.230686
0.637446 0.141619 0.16611
0.657435 0.125429 0.134768
0.0229953 0.326665 0.406485
0.0433509 0.327184 0.405554
0.0703746 0.345098 0.415091
0.134279 0.386633 0.410971
0.472389 0.438437 0.395056
0.652201 0.430793 0.361578
0.725933 0.38143 0.304402
0.764584 0.32221 0.233066
0.800595 0.30956 0.199496
0.0228122 0.418387 0.459037
0.0433814 0.421042 0.458213
0.072694 0.438315 0.459556
0.127153 0.481498 0.433707
0.475135 0.551476 0.399435
0.724468 0.58909 0.383612
0.834653 0.580941 0.380102
0.886213 0.553399 0.348806
0.917525 0.550057 0.340139
0.027512 0.50811 0.505028
0.0450752 0.512718 0.509346
0.0795911 0.522881 0.48716
0.210681 0.583658 0.43769
0.539239 0.649805 0.424292
0.785489 0.71516 0.447562
0.889143 0.719951 0.449638
0.934218 0.714183 0.447654
0.96083 0.72372 0.45626
0.251453 0.665644 0.470893
0.282826 0.669398 0.466407
0.391104 0.683879 0.453269
0.518791 0.714321 0.459236
0.683345 0.753368 0.468757
0.830228 0.792203 0.484459
0.910613 0.781186 0.469154
0.939986 0.775036 0.47541
0.963287 0.775311 0.475181
0.457298 0.748577 0.472953
0.525078 0.750637 0.448325
0.550225 0.753292 0.45565
0.596002 0.761196 0.462013
0.716457 0.791775 0.473976
0.844968 0.8177 0.47808
0.91194 0.802213 0.4636
0.937743 0.796017 0.468376
0.960418 0.792294 0.46006
0.0195468 0.0238193 0.166369
0.042359 0.0236057 0.174105
0.0709239 0.0246281 0.188769
0.120089 0.0272221 0.202533
0.189914 0.0305028 0.212894
0.276387 0.031281 0.216663
0.350805 0.0302586 0.210849
0.410697 0.0298924 0.190265
0.453727 0.0301518 0.176165
0.0162966 0.0439307 0.172366
0.0389258 0.0449073 0.18114
0.0698558 0.0487221 0.207324
0.146319 0.0514382 0.228519
0.237934 0.0528878 0.227253
0.339345 0.0525978 0.225666
0.407492 0.0517891 0.210925
0.451362 0.0514992 0.187579
0.486259 0.0512551 0.171969
0.0177615 0.0835126 0.227863
0.0403906 0.0886397 0.237873
0.0664225 0.10309 0.267445
0.145418 0.117845 0.285893
0.334035 0.112535 0.281468
0.457252 0.101152 0.259541
0.517647 0.0864271 0.230732
0.546166 0.076112 0.190265
0.573251 0.0751812 0.16849
0.0209506 0.191897 0.348638
0.0423896 0.191104 0.346639
0.0675212 0.207309 0.365713
0.112078 0.230594 0.375189
0.376959 0.25951 0.373877
0.538506 0.236332 0.340734
0.611612 0.197955 0.301885
0.642542 0.141146 0.231312
0.665583 0.123873 0.194491
0.0246586 0.328527 0.465599
0.0447089 0.329137 0.465461
0.071397 0.340612 0.473823
0.106416 0.368063 0.476432
0.344564 0.427161 0.481117
0.606348 0.433845 0.458839
0.694697 0.389654 0.413123
0.748989 0.328603 0.342977
0.782208 0.314672 0.314733
0.0255436 0.432288 0.537118
0.0453803 0.434836 0.537072
0.0747234 0.450599 0.542733
0.113756 0.493706 0.548455
0.321126 0.560388 0.543862
0.645487 0.596841 0.541146
0.773831 0.593011 0.52285
0.837156 0.557717 0.479149
0.882567 0.565408 0.477867
0.0301976 0.523461 0.581292
0.0471199 0.528054 0.58584
0.0788281 0.536645 0.578286
0.150561 0.593332 0.563638
0.370275 0.643565 0.537484
0.680919 0.691142 0.539864
0.834058 0.712535 0.539025
0.906493 0.707698 0.536873
0.940673 0.711696 0.540612
0.174792 0.678004 0.582757
0.203494 0.684749 0.582757
0.231434 0.674327 0.565087
0.320134 0.700343 0.571649
0.522728 0.732509 0.562051
0.746441 0.772992 0.562997
0.877897 0.79028 0.560952
0.924117 0.78735 0.569512
0.950744 0.79028 0.580682
0.232303 0.724453 0.58204
0.31783 0.726864 0.550057
0.301122 0.724132 0.5682
0.35787 0.736217 0.577798
0.547402 0.767712 0.574334
0.77496 0.81294 0.575433
0.891844 0.8262 0.571984
0.923796 0.823255 0.584283
0.94754 0.821912 0.589914
0.0192874 0.0234836 0.195239
0.0411536 0.022797 0.200305
0.0659648 0.0232853 0.213367
0.110292 0.0258946 0.233066
0.17586 0.0291142 0.244694
0.242893 0.0307317 0.250614
0.320012 0.0304112 0.2495
0.409873 0.0299077 0.229938
0.461936 0.0299382 0.214771
0.016144 0.0433356 0.19971
0.0384833 0.0437476 0.207248
0.0650034 0.0455634 0.231037
0.125139 0.0487221 0.257572
0.21677 0.0519875 0.262913
0.295033 0.0522927 0.261112
0.373968 0.0515145 0.250919
0.443778 0.051133 0.228916
0.492287 0.0509651 0.212177
0.0172274 0.0796063 0.254261
0.0395056 0.0825971 0.261051
0.0646067 0.0932631 0.292409
0.115846 0.105669 0.313588
0.294835 0.110796 0.326146
0.421317 0.0970169 0.306661
0.50367 0.0845197 0.278904
0.54374 0.0755779 0.239872
0.579751 0.0748608 0.217288
0.0212406 0.188037 0.381552
0.0422065 0.186053 0.378927
0.0672923 0.203662 0.403861
0.0979324 0.221393 0.416464
0.296452 0.253574 0.424521
0.494957 0.239048 0.40296
0.602823 0.202747 0.367056
0.652781 0.145113 0.304051
0.679957 0.128923 0.27277
0.0251011 0.323995 0.504921
0.0447089 0.3234 0.503883
0.0714275 0.335988 0.514992
0.098497 0.353155 0.523644
0.239429 0.406958 0.53138
0.527596 0.426795 0.52488
0.670817 0.405951 0.495293
0.755184 0.368338 0.457801
0.789105 0.357656 0.444938
0.0267948 0.429007 0.58854
0.0455329 0.432624 0.591623
0.0742046 0.441505 0.592782
0.108064 0.476097 0.604181
0.228214 0.535805 0.609308
0.547005 0.587701 0.619913
0.719265 0.596811 0.613077
0.80267 0.586877 0.59855
0.853864 0.610437 0.619272
0.032105 0.530404 0.643748
0.0489509 0.534844 0.647654
0.0823529 0.544549 0.646601
0.139147 0.595468 0.651728
0.288121 0.652094 0.654292
0.562325 0.691264 0.654597
0.770077 0.711849 0.655177
0.857496 0.703273 0.639597
0.90164 0.702571 0.636927
0.0798199 0.66601 0.684092
0.105364 0.669337 0.680385
0.132448 0.658885 0.67068
0.209277 0.695277 0.683482
0.393256 0.741955 0.687724
0.61117 0.759014 0.662089
0.798947 0.778271 0.648081
0.890303 0.783825 0.647532
0.928084 0.781735 0.656504
0.0972305 0.704814 0.689372
0.142824 0.707362 0.668513
0.149889 0.699458 0.683314
0.24123 0.734417 0.700038
0.450477 0.787106 0.714519
0.653056 0.806104 0.693309
0.818875 0.823163 0.65977
0.893919 0.831662 0.665263
0.925231 0.831586 0.687526
0.0192874 0.0233768 0.225971
0.0409094 0.0224613 0.229526
0.0643168 0.0225223 0.242161
0.103105 0.0247654 0.265095
0.166339 0.0275731 0.281147
0.213001 0.0287785 0.282277
0.283391 0.0298466 0.288762
0.404211 0.0301213 0.274983
0.471489 0.0303197 0.262089
0.0162661 0.0433051 0.230152
0.0383459 0.0432288 0.236393
0.0629435 0.0439765 0.257298
0.108827 0.0468147 0.28452
0.196185 0.0501411 0.300099
0.255085 0.0511177 0.295827
0.328984 0.0510719 0.293523
0.438529 0.0512093 0.276661
0.503761 0.051133 0.259663
0.0170291 0.0769818 0.284321
0.03888 0.0780804 0.287312
0.0635386 0.0850843 0.315007
0.0995499 0.0939956 0.338933
0.245304 0.102419 0.361456
0.374365 0.095552 0.354116
0.465293 0.0825818 0.334081
0.543053 0.0757458 0.299275
0.588754 0.0753338 0.279835
0.0215 0.184802 0.412879
0.0420539 0.181216 0.408835
0.067216 0.198581 0.437201
0.0934462 0.214435 0.455024
0.219684 0.245411 0.46331
0.436545 0.240299 0.459876
0.552087 0.206088 0.434623
0.655146 0.155322 0.386481
0.685985 0.140703 0.368673
0.0249485 0.319524 0.535775
0.0442664 0.318746 0.534722
0.0711376 0.332586 0.547845
0.0971237 0.346609 0.561486
0.175998 0.395834 0.576761
0.421714 0.424308 0.581704
0.601236 0.420966 0.573754
0.731563 0.412573 0.560632
0.770092 0.417212 0.564935
0.0270085 0.42681 0.623652
0.0450752 0.429114 0.626032
0.0730297 0.430823 0.62742
0.105043 0.467002 0.646296
0.202518 0.527352 0.657069
0.477241 0.584619 0.67364
0.644724 0.591043 0.667689
0.762615 0.617853 0.683055
0.831846 0.658503 0.711177
0.0333104 0.527962 0.687541
0.0502632 0.533379 0.691646
0.0831769 0.540139 0.689754
0.142351 0.591592 0.696162
0.289158 0.64358 0.705135
0.525277 0.685252 0.71809
0.716106 0.707774 0.724681
0.810086 0.709026 0.718486
0.871153 0.724422 0.728481
0.0663005 0.653956 0.734203
0.0887007 0.65716 0.733532
0.134844 0.66128 0.725551
0.237491 0.704158 0.736843
0.426734 0.748333 0.748425
0.572198 0.762997 0.743206
0.712474 0.771008 0.733806
0.844541 0.778531 0.728618
0.900801 0.773388 0.721553
0.0775311 0.690852 0.737392
0.113176 0.69218 0.729381
0.154726 0.701122 0.732265
0.285939 0.746807 0.748394
0.497932 0.795865 0.766217
0.626978 0.811048 0.756756
0.729641 0.811765 0.72575
0.848432 0.823468 0.70959
0.918364 0.827893 0.715633
0.0188602 0.0229038 0.250782
0.0404669 0.0219883 0.254322
0.0635843 0.022034 0.267338
0.100267 0.0242008 0.289921
0.161456 0.0267491 0.30959
0.208331 0.0278325 0.31249
0.265751 0.028748 0.317433
0.393729 0.029984 0.312856
0.463172 0.0303655 0.303487
0.0161135 0.0431525 0.256138
0.038117 0.0428321 0.261601
0.062089 0.0432136 0.281102
0.102861 0.0459297 0.308354
0.182986 0.0487373 0.329351
0.244511 0.0497292 0.330053
0.295628 0.0501106 0.327794
0.423468 0.0509041 0.3196
0.500603 0.0509651 0.30663
0.0169528 0.0774395 0.311666
0.0385443 0.0770123 0.312581
0.0626688 0.0813153 0.335332
0.0928359 0.0872206 0.360632
0.212955 0.0946517 0.38938
0.346838 0.0938125 0.395392
0.415305 0.0805829 0.380011
0.524224 0.0756847 0.35938
0.580758 0.0753643 0.346441
0.0210575 0.18114 0.436835
0.0413367 0.176318 0.431601
0.0660258 0.190768 0.456809
0.0923018 0.209079 0.485496
0.163516 0.233097 0.496574
0.359854 0.233219 0.501396
0.489097 0.208209 0.489998
0.625299 0.177356 0.468193
0.659083 0.166491 0.459174
0.024506 0.316976 0.562875
0.0435798 0.314549 0.560296
0.0703136 0.327611 0.575067
0.0961929 0.339315 0.591119
0.145159 0.384649 0.614343
0.366659 0.44358 0.636011
0.56527 0.446738 0.6327
0.697459 0.45713 0.636362
0.736934 0.457664 0.636118
0.0271458 0.42829 0.654353
0.0449836 0.428809 0.654719
0.0722362 0.430182 0.660365
0.108827 0.473732 0.682963
0.236637 0.552316 0.703456
0.552346 0.625956 0.731838
0.692012 0.641657 0.734203
0.768933 0.653727 0.739834
0.831586 0.687282 0.759136
0.0357519 0.538827 0.72256
0.0529488 0.54519 0.726787
0.0892042 0.556268 0.727291
0.178286 0.619471 0.739376
0.411704 0.686397 0.76109
0.615885 0.716228 0.773083
0.749981 0.732082 0.777508
0.80325 0.727993 0.771252
0.860288 0.744915 0.778897
0.0648966 0.651942 0.759548
0.0880598 0.651881 0.757443
0.143053 0.665217 0.753796
0.254063 0.704585 0.764904
0.458457 0.74667 0.780545
0.592737 0.760021 0.78468
0.710033 0.76997 0.786877
0.818067 0.779141 0.78703
0.870115 0.777539 0.781003
0.0751965 0.687739 0.76173
0.108186 0.686519 0.755611
0.160067 0.703441 0.757794
0.29955 0.74992 0.77438
0.510521 0.795514 0.79411
0.621378 0.808576 0.795529
0.69398 0.813367 0.790738
0.792782 0.819486 0.783978
0.889738 0.825772 0.783291
