photonStudio/src/main/resources/templates/assets/common/cube/AriColour_4k_Cine_AriGold.cube
TITLE "Generate by Resolve"
LUT_3D_SIZE 5
0.0290532 0.0340887 0.0357671
0.0867475 0.0281224 0.0260319
0.215747 0.0344854 0.0242313
0.381048 0.0381476 0.0272526
0.465019 0.0370642 0.027863
0.0181888 0.121187 0.0475319
0.163546 0.168215 0.0541238
0.462959 0.160662 0.0340276
0.586435 0.125902 0.0327306
0.644144 0.111467 0.0310063
0.0226749 0.260563 0.0803235
0.135836 0.309468 0.0941176
0.608179 0.414725 0.0925612
0.791913 0.373922 0.0692149
0.858518 0.334493 0.0522011
0.106783 0.458656 0.129381
0.219364 0.499321 0.14696
0.712428 0.664576 0.227848
0.898619 0.697597 0.284291
0.959915 0.687861 0.290455
0.496101 0.698207 0.19913
0.651499 0.747753 0.231403
0.779049 0.80322 0.34229
0.908095 0.809277 0.371786
0.961471 0.807553 0.408499
0.0221256 0.0263523 0.0869306
0.122576 0.0314946 0.1149
0.256779 0.0319677 0.0996567
0.371206 0.029633 0.076112
0.417197 0.0299229 0.0711986
0.018265 0.124102 0.160571
0.12372 0.144625 0.15993
0.410361 0.143969 0.113924
0.54551 0.103914 0.0796216
0.595132 0.0898756 0.0725567
0.0174563 0.289433 0.226947
0.0804303 0.305745 0.193072
0.577691 0.421164 0.168826
0.782696 0.381949 0.134203
0.847211 0.323964 0.0948043
0.0339055 0.475273 0.29723
0.135454 0.497246 0.259831
0.67393 0.665507 0.304402
0.900267 0.703182 0.329839
0.960952 0.692454 0.327169
0.564416 0.74432 0.306722
0.693462 0.772107 0.303593
0.792355 0.805234 0.370306
0.911559 0.798474 0.386053
0.961013 0.799588 0.433066
0.0201724 0.0244907 0.140673
0.0817273 0.026627 0.166476
0.217639 0.031754 0.184161
0.381064 0.0301671 0.172793
0.454414 0.0299077 0.13901
0.018265 0.091783 0.206516
0.0717937 0.113268 0.237247
0.375875 0.118791 0.234562
0.526619 0.0893873 0.180987
0.5673 0.0756542 0.125841
0.0229953 0.326665 0.406485
0.0703746 0.345098 0.415091
0.472389 0.438437 0.395056
0.725933 0.38143 0.304402
0.800595 0.30956 0.199496
0.027512 0.50811 0.505028
0.0795911 0.522881 0.48716
0.539239 0.649805 0.424292
0.889143 0.719951 0.449638
0.96083 0.72372 0.45626
0.457298 0.748577 0.472953
0.550225 0.753292 0.45565
0.716457 0.791775 0.473976
0.91194 0.802213 0.4636
0.960418 0.792294 0.46006
0.0192874 0.0234836 0.195239
0.0659648 0.0232853 0.213367
0.17586 0.0291142 0.244694
0.320012 0.0304112 0.2495
0.461936 0.0299382 0.214771
0.0172274 0.0796063 0.254261
0.0646067 0.0932631 0.292409
0.294835 0.110796 0.326146
0.50367 0.0845197 0.278904
0.579751 0.0748608 0.217288
0.0251011 0.323995 0.504921
0.0714275 0.335988 0.514992
0.239429 0.406958 0.53138
0.670817 0.405951 0.495293
0.789105 0.357656 0.444938
0.032105 0.530404 0.643748
0.0823529 0.544549 0.646601
0.288121 0.652094 0.654292
0.770077 0.711849 0.655177
0.90164 0.702571 0.636927
0.0972305 0.704814 0.689372
0.149889 0.699458 0.683314
0.450477 0.787106 0.714519
0.818875 0.823163 0.65977
0.925231 0.831586 0.687526
0.0188602 0.0229038 0.250782
0.0635843 0.022034 0.267338
0.161456 0.0267491 0.30959
0.265751 0.028748 0.317433
0.463172 0.0303655 0.303487
0.0169528 0.0774395 0.311666
0.0626688 0.0813153 0.335332
0.212955 0.0946517 0.38938
0.415305 0.0805829 0.380011
0.580758 0.0753643 0.346441
0.024506 0.316976 0.562875
0.0703136 0.327611 0.575067
0.145159 0.384649 0.614343
0.56527 0.446738 0.6327
0.736934 0.457664 0.636118
0.0357519 0.538827 0.72256
0.0892042 0.556268 0.727291
0.411704 0.686397 0.76109
0.749981 0.732082 0.777508
0.860288 0.744915 0.778897
0.0751965 0.687739 0.76173
0.160067 0.703441 0.757794
0.510521 0.795514 0.79411
0.69398 0.813367 0.790738
0.889738 0.825772 0.783291
