photonStudio/src/main/resources/templates/assets/common/cube/AriColour_4k_Cine_AriGold.cube
TITLE "Generate by Resolve"
LUT_3D_SIZE 33
0.0290532 0.0340887 0.0357671
0.0345464 0.033875 0.035523
0.0403143 0.0336614 0.0352026
0.0495613 0.0324559 0.0332647
0.058732 0.0313115 0.0314336
0.0663005 0.0304265 0.0298772
0.073579 0.0295567 0.0283665
0.0801099 0.028809 0.0271763
0.0867475 0.0281224 0.0260319
0.0977798 0.0285191 0.0251469
0.109071 0.0290074 0.0242924
0.128054 0.0308843 0.024155
0.148486 0.0330205 0.0241093
0.164889 0.0332647 0.0242008
0.181323 0.0334783 0.0242771
0.197009 0.0337835 0.024155
0.215747 0.0344854 0.0242313
0.240055 0.0357977 0.0246128
0.2645 0.0370794 0.0249943
0.289448 0.0383459 0.0254368
0.312459 0.0390784 0.0258793
0.333043 0.0391852 0.0263218
0.351217 0.0390326 0.0267185
0.366125 0.0384985 0.0269932
0.381048 0.0381476 0.0272526
0.395926 0.0380102 0.027512
0.410117 0.0379492 0.0277409
0.423453 0.0379644 0.027985
0.433936 0.037644 0.0280919
0.442649 0.0370947 0.0281071
0.450721 0.0369879 0.0280613
0.458656 0.0370642 0.0280003
0.465019 0.0370642 0.027863
0.027863 0.0394141 0.0352941
0.033463 0.039353 0.0350805
0.0393378 0.0394141 0.0348974
0.0486458 0.0383307 0.0330358
0.0585794 0.0370642 0.0309453
0.0666361 0.0360571 0.0291905
0.0743725 0.0350805 0.027512
0.0828717 0.0347753 0.0263676
0.0913252 0.0345159 0.0252689
0.102632 0.0349889 0.0244602
0.11458 0.0355993 0.0236362
0.131472 0.0368048 0.0233768
0.150393 0.0382849 0.0233005
0.166934 0.0386053 0.0233921
0.183261 0.0387579 0.0235142
0.201312 0.0394598 0.0235294
0.221439 0.0403296 0.0236515
0.246036 0.0415503 0.0240635
0.270634 0.0427405 0.0244755
0.295125 0.043946 0.024918
0.317769 0.0446174 0.0254063
0.338277 0.0446326 0.0259251
0.356466 0.0444343 0.0263218
0.371527 0.0440375 0.026627
0.386404 0.0437171 0.0269322
0.401816 0.0436255 0.0272374
0.416449 0.043595 0.0275425
0.429862 0.0436408 0.0278172
0.440406 0.0433051 0.0279088
0.448875 0.0426947 0.0279088
0.456672 0.0425116 0.027863
0.464271 0.0425116 0.0277867
0.470665 0.0425422 0.0276799
0.0266423 0.0448768 0.0348516
0.0323186 0.0449378 0.0346685
0.038529 0.0452735 0.034638
0.0475624 0.0445258 0.033051
0.0581216 0.0432136 0.0306249
0.067216 0.0421454 0.0285801
0.075761 0.0412299 0.0267338
0.0867475 0.0414282 0.0255741
0.0986038 0.0420691 0.0246433
0.111482 0.0429084 0.0238651
0.124697 0.0438087 0.0231174
0.139971 0.0444343 0.022797
0.156771 0.0449226 0.0227054
0.172763 0.0449836 0.022797
0.188373 0.0449226 0.0229496
0.210971 0.0463264 0.0231174
0.234272 0.0476692 0.0233463
0.258793 0.0486915 0.0238193
0.282963 0.0496986 0.0243076
0.306752 0.0507057 0.0247807
0.329427 0.0513771 0.0252995
0.349096 0.0511482 0.025803
0.367483 0.0508888 0.026276
0.383337 0.0507973 0.026627
0.398871 0.0506294 0.0269627
0.41445 0.0504311 0.0273289
0.429007 0.0502785 0.0276188
0.442283 0.0502937 0.0278325
0.45275 0.049958 0.0279393
0.460838 0.0492714 0.027924
0.468132 0.0489509 0.027863
0.475044 0.0487526 0.0277867
0.481178 0.0487068 0.0276188
0.0249027 0.0546426 0.0355993
0.0304875 0.0545357 0.0352331
0.0369116 0.0548714 0.0348211
0.0461433 0.0554971 0.0337072
0.0585641 0.0560616 0.0316625
0.0711986 0.0555276 0.0296788
0.0834821 0.0540932 0.027924
0.0977951 0.0541238 0.0266728
0.113176 0.0548867 0.0257267
0.129229 0.0558328 0.0248722
0.146868 0.0570687 0.024033
0.164034 0.0575418 0.0235142
0.181888 0.0576028 0.023331
0.199756 0.0573281 0.02327
0.217517 0.0569162 0.0232853
0.240818 0.0578012 0.0235447
0.265171 0.0588998 0.0238956
0.288075 0.0593576 0.0243992
0.311498 0.0599527 0.024979
0.334554 0.0606699 0.0255131
0.355962 0.0610056 0.0260166
0.374914 0.0607004 0.0265202
0.39324 0.0603799 0.026978
0.409018 0.0600595 0.0273136
0.424323 0.0596933 0.0276493
0.438819 0.0591745 0.0279088
0.452583 0.0587472 0.0281529
0.46508 0.0585641 0.0283207
0.47483 0.0581064 0.0283665
0.481788 0.0573434 0.0283055
0.487877 0.0568246 0.0281987
0.493553 0.0563821 0.0280308
0.499413 0.0562448 0.0278477
0.0231022 0.0654307 0.0367132
0.0284886 0.0651255 0.0362402
0.03505 0.0659342 0.0354162
0.0441138 0.0679484 0.0345006
0.0593576 0.0726482 0.0333562
0.0766613 0.0751202 0.0321965
0.0963302 0.0738231 0.0309758
0.115984 0.0731823 0.0298161
0.135592 0.0737011 0.0288396
0.15668 0.0744793 0.0277714
0.179416 0.0751659 0.0264439
0.202365 0.0757458 0.0255436
0.224491 0.0760204 0.0251164
0.248035 0.075761 0.0248112
0.272801 0.0752728 0.0246128
0.295521 0.0749065 0.024918
0.317372 0.0746014 0.0253452
0.337575 0.0742046 0.0259098
0.357595 0.0738689 0.0264286
0.37731 0.0736858 0.026978
0.396307 0.0733959 0.0274815
0.41445 0.0730907 0.0279545
0.431174 0.0725567 0.0283665
0.44593 0.0715801 0.0286107
0.460304 0.070573 0.0287938
0.473747 0.069688 0.0289616
0.486732 0.0689555 0.0291142
0.497551 0.0682841 0.0291752
0.505821 0.0675975 0.0291447
0.511589 0.066865 0.0290074
0.516533 0.0662547 0.028809
0.52134 0.0657359 0.0285954
0.526757 0.0655222 0.0283665
0.021912 0.0780194 0.0375677
0.0270695 0.0774701 0.0372778
0.0335393 0.0786603 0.0368963
0.0413062 0.0805982 0.0365148
0.0572976 0.0871443 0.0363928
0.0762341 0.092607 0.0361486
0.101305 0.0939193 0.0354772
0.126787 0.0949874 0.0345922
0.152331 0.0959793 0.0333104
0.178775 0.0970321 0.0319982
0.207233 0.0981003 0.0306249
0.235752 0.0987869 0.0293736
0.263478 0.0989395 0.0283513
0.291341 0.0982528 0.0275731
0.31899 0.09691 0.0270237
0.342748 0.0951553 0.0271916
0.364675 0.0933242 0.027512
0.383948 0.0916915 0.0278325
0.402441 0.0902113 0.0281682
0.420264 0.0890669 0.0286564
0.437278 0.0878462 0.0291295
0.453254 0.0869764 0.0295262
0.468986 0.0860151 0.0298466
0.482246 0.0843061 0.0299229
0.49543 0.0825513 0.029984
0.508278 0.0812848 0.0300298
0.519875 0.0799725 0.030045
0.529641 0.0789044 0.0300298
0.537072 0.0779583 0.0299077
0.541894 0.0770886 0.0296941
0.546365 0.0764019 0.0294652
0.551064 0.0758831 0.0291905
0.55613 0.0755474 0.0289464
0.0212253 0.0921798 0.0385748
0.0263828 0.0916762 0.0383459
0.0325322 0.0928664 0.0389258
0.0392615 0.094667 0.0396582
0.0533455 0.100679 0.0408637
0.0706188 0.107057 0.0417792
0.0979171 0.11368 0.0417487
0.127489 0.118959 0.0410925
0.161273 0.121355 0.0391852
0.195224 0.123278 0.0373999
0.229435 0.12488 0.0361944
0.263111 0.125475 0.034699
0.296666 0.124819 0.0327153
0.327138 0.123095 0.0311589
0.354971 0.120958 0.0303349
0.380163 0.117784 0.0301213
0.403937 0.114397 0.0301518
0.424628 0.111391 0.0300755
0.4448 0.108675 0.0300298
0.460517 0.106096 0.0303502
0.476265 0.10367 0.0307622
0.490944 0.101991 0.0310216
0.505516 0.100313 0.0312352
0.517128 0.0978714 0.0311894
0.529107 0.0955215 0.0311131
0.540002 0.0935073 0.0310216
0.550378 0.0917067 0.03093
0.559335 0.0902876 0.0307927
0.566888 0.0892348 0.0306249
0.572763 0.0885176 0.0304112
0.577691 0.0878004 0.0301518
0.582864 0.0872969 0.0299229
0.588296 0.0869764 0.0296788
0.019913 0.106462 0.0420539
0.0251469 0.10631 0.0419165
0.0311742 0.107439 0.042649
0.0373388 0.108873 0.043534
0.0505226 0.114763 0.0453498
0.066392 0.121599 0.0470741
0.0943618 0.131914 0.0478676
0.125566 0.140688 0.0479133
0.164752 0.145678 0.0462806
0.203876 0.149844 0.0446784
0.24271 0.152117 0.0431067
0.281956 0.153414 0.0410773
0.319356 0.151965 0.0378729
0.353979 0.149416 0.0352789
0.383856 0.145754 0.0336767
0.411139 0.141466 0.0328222
0.436942 0.136919 0.0323491
0.458762 0.132601 0.032166
0.479744 0.128557 0.0320439
0.495293 0.124834 0.0320897
0.510262 0.121202 0.032166
0.524483 0.118441 0.0323033
0.538567 0.115755 0.0324254
0.549203 0.112718 0.0322423
0.559442 0.109651 0.0320439
0.569421 0.106737 0.0318456
0.578897 0.104189 0.0316625
0.587427 0.102403 0.0314794
0.595148 0.101213 0.031281
0.601617 0.100374 0.0310826
0.60763 0.0997635 0.0308537
0.61323 0.0991684 0.0306249
0.618692 0.0987869 0.0303655
0.0181888 0.121187 0.0475319
0.0234073 0.120897 0.0473182
0.0294194 0.121935 0.0476844
0.035584 0.123278 0.0482032
0.0488899 0.129442 0.0499123
0.0647288 0.136889 0.0517891
0.0909895 0.148241 0.0534066
0.121843 0.159091 0.0544442
0.163546 0.168215 0.0541238
0.206226 0.175845 0.0532845
0.250294 0.179416 0.0509804
0.294209 0.181247 0.0479438
0.335439 0.179706 0.0435035
0.373678 0.176318 0.0396429
0.407904 0.171328 0.0370184
0.436942 0.165896 0.0352789
0.462959 0.160662 0.0340276
0.485115 0.155291 0.0340276
0.506142 0.150057 0.0342412
0.522515 0.145525 0.0338598
0.537957 0.141161 0.0333867
0.552056 0.136995 0.033341
0.56524 0.13283 0.0333257
0.576379 0.129503 0.033051
0.586435 0.125902 0.0327306
0.59556 0.12163 0.0324865
0.604425 0.11809 0.0322728
0.613077 0.116075 0.0320897
0.620371 0.114534 0.0319066
0.626825 0.113283 0.0317082
0.632761 0.112459 0.0314946
0.638361 0.111772 0.0312505
0.644144 0.111467 0.0310063
0.0174563 0.136599 0.0523384
0.0225834 0.136294 0.0521553
0.0285191 0.137118 0.0521706
0.0346685 0.138445 0.0522621
0.047715 0.144808 0.0543679
0.0633097 0.152438 0.056611
0.0888991 0.164294 0.0586099
0.119142 0.176333 0.060029
0.16257 0.188891 0.0599985
0.208011 0.200076 0.0593271
0.255985 0.206027 0.0567788
0.304036 0.20972 0.0535286
0.348424 0.207736 0.0487678
0.390631 0.203571 0.0441901
0.428977 0.197681 0.04065
0.460227 0.191272 0.0380865
0.48719 0.185061 0.0361181
0.509941 0.178729 0.0360113
0.531151 0.172595 0.0363165
0.548486 0.167315 0.035523
0.564508 0.162325 0.034638
0.578317 0.156863 0.0344091
0.591058 0.151583 0.0342565
0.602319 0.147555 0.0338598
0.612345 0.143267 0.0334478
0.620981 0.138018 0.0331579
0.629206 0.133669 0.0329137
0.637354 0.130938 0.0327306
0.644419 0.129015 0.0325322
0.650645 0.127443 0.0323186
0.656321 0.12636 0.0320897
0.662287 0.125826 0.0318761
0.668116 0.125551 0.0316472
0.0174716 0.15259 0.0565805
0.0226291 0.152377 0.0563973
0.0284581 0.153033 0.0560769
0.0344244 0.154086 0.0557412
0.0465705 0.160266 0.0584421
0.0611734 0.167834 0.0614481
0.0873426 0.180087 0.0635538
0.117922 0.19321 0.0649271
0.161883 0.20795 0.0639353
0.20827 0.221988 0.062562
0.259251 0.231525 0.0602426
0.311559 0.238697 0.0574502
0.359762 0.236545 0.0534524
0.405432 0.231937 0.0491188
0.446128 0.225452 0.0448615
0.480278 0.218753 0.041825
0.509941 0.212039 0.0395209
0.533867 0.205722 0.0388495
0.555734 0.199741 0.0385138
0.57319 0.193652 0.0373999
0.589349 0.187671 0.0362707
0.603113 0.181369 0.0357824
0.615503 0.175113 0.0354162
0.626505 0.169497 0.0349584
0.636408 0.164187 0.0345159
0.64477 0.158709 0.0341039
0.652567 0.153567 0.0337377
0.660365 0.149126 0.0333562
0.667582 0.146563 0.0330968
0.674266 0.145174 0.0328985
0.680659 0.144183 0.0326848
0.686656 0.143297 0.0324712
0.692592 0.142885 0.0322576
0.0175631 0.16846 0.0597086
0.0226444 0.16817 0.0595254
0.0284886 0.168795 0.0591745
0.0343786 0.169574 0.0586252
0.0451362 0.17525 0.0610513
0.057847 0.182406 0.0642557
0.0856336 0.195636 0.0670481
0.116625 0.209506 0.0690929
0.160693 0.225925 0.0677653
0.206638 0.241733 0.0658427
0.259602 0.254658 0.0637217
0.315236 0.265721 0.0613565
0.368597 0.265431 0.0581826
0.418799 0.261158 0.0542306
0.462913 0.254627 0.0494392
0.49987 0.247272 0.0459297
0.532525 0.240146 0.0434119
0.557809 0.234134 0.0420691
0.580133 0.228443 0.041001
0.598047 0.221668 0.0396429
0.613993 0.214755 0.0383764
0.62771 0.20795 0.037583
0.639704 0.200931 0.0369573
0.650767 0.19411 0.0364538
0.660288 0.187823 0.035935
0.668421 0.182132 0.0353552
0.676265 0.17641 0.0347753
0.683879 0.170352 0.0341955
0.691356 0.167041 0.0338293
0.698985 0.16614 0.0336461
0.705776 0.165103 0.033463
0.711925 0.16405 0.0332494
0.717922 0.163546 0.0330663
0.0176089 0.184192 0.0620127
0.0226444 0.183902 0.0618296
0.0284733 0.184268 0.0614939
0.0344244 0.185092 0.0610208
0.0436103 0.190066 0.0623178
0.0544442 0.19704 0.0645457
0.0834669 0.210849 0.0682231
0.116274 0.225711 0.0718547
0.158999 0.242374 0.0713817
0.203845 0.259327 0.0700999
0.256962 0.27454 0.0681926
0.31371 0.288838 0.066041
0.372305 0.293935 0.0636149
0.428489 0.293095 0.0600748
0.477363 0.286732 0.055024
0.517159 0.278935 0.0514839
0.552132 0.271717 0.0492103
0.578851 0.265446 0.0475471
0.601999 0.259632 0.0461433
0.621057 0.253086 0.0448615
0.637385 0.246235 0.0434272
0.651286 0.239033 0.0416266
0.663874 0.231922 0.0401312
0.674876 0.224277 0.0392004
0.68452 0.216907 0.0383154
0.692927 0.209934 0.0372168
0.701122 0.203204 0.036286
0.709545 0.196628 0.035584
0.717769 0.192569 0.0351263
0.725368 0.190784 0.0348821
0.732433 0.189364 0.0346685
0.738842 0.188373 0.0344854
0.744732 0.187732 0.034287
0.0185245 0.201709 0.0647288
0.0233463 0.20119 0.0644846
0.029099 0.201144 0.0640726
0.0351263 0.201877 0.0635538
0.0433356 0.206027 0.0639658
0.0533303 0.212711 0.0651713
0.0803082 0.226047 0.0692149
0.11487 0.241901 0.0743267
0.157107 0.259022 0.0755932
0.201602 0.276616 0.0755322
0.25388 0.293477 0.0738689
0.311162 0.31046 0.0716869
0.374334 0.321279 0.0697795
0.436423 0.325521 0.0669108
0.489815 0.320684 0.0621195
0.53344 0.31281 0.0584726
0.569909 0.304936 0.0561379
0.598886 0.298466 0.0542611
0.622873 0.292454 0.0526589
0.642939 0.286366 0.0515145
0.660319 0.280232 0.049958
0.67512 0.273426 0.0472419
0.688029 0.266224 0.0448005
0.699702 0.258762 0.0434272
0.709941 0.250874 0.0420996
0.718914 0.242542 0.0403143
0.728222 0.235264 0.0389258
0.737209 0.228656 0.0381781
0.745983 0.223926 0.0376135
0.753857 0.221149 0.0371405
0.760922 0.219028 0.0368048
0.767147 0.217838 0.0365911
0.773312 0.217395 0.036408
0.0201267 0.220539 0.0678874
0.0247807 0.219989 0.0675822
0.0305333 0.219837 0.067216
0.0367132 0.220691 0.0665751
0.044892 0.224353 0.0664378
0.0556802 0.231525 0.0670939
0.0782483 0.24332 0.0712139
0.110033 0.258503 0.0779583
0.153277 0.276158 0.0818494
0.201633 0.294881 0.0840009
0.254337 0.312749 0.0827802
0.312245 0.331289 0.079881
0.376486 0.346181 0.0780804
0.440955 0.35523 0.0762951
0.49807 0.354894 0.0734417
0.545129 0.348348 0.0699168
0.584131 0.340154 0.0664836
0.615351 0.333013 0.0637675
0.641169 0.326863 0.0615854
0.663493 0.321294 0.0597391
0.682292 0.315602 0.057557
0.698528 0.309514 0.0545357
0.712551 0.302953 0.0516823
0.725155 0.295933 0.0497749
0.73666 0.288396 0.0479133
0.747158 0.280217 0.0454108
0.757 0.27248 0.0434272
0.766308 0.266011 0.042649
0.775387 0.260884 0.0418555
0.78349 0.257557 0.0409094
0.790341 0.254704 0.0402533
0.796628 0.253559 0.0400702
0.802441 0.252796 0.0398718
0.0215305 0.240177 0.0729839
0.0260471 0.239704 0.0726024
0.0317998 0.239322 0.0721752
0.0381323 0.240192 0.0714427
0.0458228 0.243076 0.0709087
0.0568093 0.250233 0.0711833
0.076051 0.261189 0.0747234
0.103624 0.275166 0.0818494
0.146426 0.292927 0.0881208
0.198825 0.312978 0.0929885
0.254795 0.332403 0.0932479
0.314 0.351843 0.090547
0.378576 0.369757 0.0886549
0.444038 0.382895 0.0873884
0.504265 0.388098 0.0862745
0.554665 0.384634 0.0833906
0.596292 0.37705 0.0791028
0.63006 0.369512 0.0755932
0.658137 0.363165 0.0728161
0.682704 0.357885 0.0700542
0.703746 0.353094 0.0672618
0.721523 0.347738 0.064332
0.737087 0.342184 0.0616312
0.751583 0.336507 0.0594186
0.764675 0.330022 0.0569162
0.776059 0.322423 0.0535286
0.786664 0.315038 0.0506905
0.796078 0.308629 0.0495308
0.804913 0.302907 0.0482338
0.812787 0.298863 0.0465553
0.819745 0.29543 0.0453651
0.82591 0.293858 0.0450904
0.831601 0.292622 0.0448005
0.0226749 0.260563 0.0803235
0.027039 0.260121 0.0799573
0.0328985 0.259785 0.0794842
0.0391089 0.260365 0.0787518
0.0461585 0.262257 0.0780346
0.0561379 0.268315 0.0780652
0.0719615 0.278065 0.0805524
0.0952316 0.291341 0.0864424
0.135836 0.309468 0.0941176
0.189334 0.330358 0.101991
0.24976 0.351507 0.105196
0.314733 0.372686 0.104372
0.380331 0.392279 0.102266
0.446418 0.408774 0.100313
0.510124 0.419379 0.0990311
0.564324 0.420508 0.0966354
0.608179 0.414725 0.0925612
0.644968 0.408042 0.0890822
0.674983 0.401648 0.086183
0.70161 0.396857 0.0831617
0.724758 0.392889 0.0801556
0.744472 0.388373 0.0774243
0.76199 0.383886 0.0749218
0.777722 0.379232 0.0723125
0.791913 0.373922 0.0692149
0.804013 0.367376 0.0650797
0.815 0.360586 0.0611734
0.824125 0.354055 0.0589456
0.832776 0.347951 0.0568246
0.84007 0.343023 0.0547189
0.846693 0.338567 0.0530556
0.852644 0.336049 0.0525521
0.858518 0.334493 0.0522011
0.0237125 0.280919 0.0863661
0.0278935 0.280491 0.0859998
0.033814 0.280186 0.0855573
0.0400549 0.280522 0.0848707
0.046952 0.282322 0.0842908
0.055848 0.28719 0.0842603
0.0695354 0.295949 0.0864424
0.0894789 0.308797 0.0918593
0.126329 0.326665 0.10016
0.178164 0.347982 0.110033
0.241978 0.370581 0.116289
0.313878 0.39321 0.117983
0.384039 0.414664 0.116747
0.45124 0.433555 0.113848
0.517281 0.448615 0.111757
0.575662 0.455421 0.109651
0.621286 0.452674 0.106676
0.660227 0.447944 0.103929
0.692576 0.442802 0.101564
0.72079 0.438544 0.0987564
0.745525 0.434775 0.0957504
0.767208 0.431144 0.0934005
0.786068 0.427115 0.0910353
0.802365 0.423041 0.088014
0.817182 0.418647 0.0844129
0.829587 0.413077 0.0797131
0.840772 0.406683 0.0747082
0.85005 0.400397 0.0710765
0.858579 0.393759 0.0675364
0.865232 0.387778 0.0647288
0.871839 0.382528 0.0623636
0.878065 0.379431 0.0614481
0.884337 0.377371 0.0607919
0.0247044 0.301244 0.0905623
0.0286107 0.300679 0.0901045
0.0346532 0.300359 0.089662
0.0411841 0.301167 0.0891737
0.0481727 0.302876 0.0886549
0.0566567 0.307317 0.0886244
0.0692302 0.315328 0.0911269
0.0874342 0.327428 0.0973983
0.120684 0.345113 0.106538
0.168872 0.366186 0.116793
0.233555 0.38938 0.125078
0.313542 0.414084 0.129778
0.389502 0.437186 0.13022
0.459617 0.45803 0.126864
0.52781 0.477134 0.124559
0.588556 0.489296 0.12285
0.635859 0.490181 0.121202
0.676844 0.488655 0.119387
0.711467 0.485191 0.117296
0.741085 0.481498 0.11458
0.766598 0.477485 0.111604
0.78732 0.472755 0.109285
0.806424 0.46923 0.107759
0.822431 0.465537 0.105394
0.837476 0.462425 0.103029
0.849592 0.458152 0.0998703
0.860578 0.453086 0.0962234
0.869734 0.44715 0.092134
0.878599 0.441352 0.0880903
0.88542 0.436057 0.0839551
0.89189 0.430701 0.0798962
0.897597 0.426902 0.0775616
0.903349 0.423484 0.0754864
0.0265965 0.321752 0.0931868
0.0301671 0.321477 0.0928511
0.0364996 0.32137 0.0923629
0.0434272 0.322332 0.0919966
0.0510414 0.324468 0.091783
0.0598154 0.328389 0.0920119
0.0719463 0.335821 0.0950179
0.0885786 0.347234 0.102312
0.117998 0.36379 0.111864
0.164416 0.385077 0.122042
0.228092 0.408743 0.131762
0.313802 0.435248 0.139666
0.394018 0.459571 0.142473
0.468986 0.482475 0.139803
0.538552 0.503929 0.137621
0.601282 0.520668 0.136065
0.650813 0.525963 0.135515
0.694331 0.52813 0.134768
0.730632 0.526543 0.133242
0.760632 0.523674 0.131197
0.786084 0.519783 0.128771
0.8065 0.51577 0.127413
0.825391 0.5122 0.126497
0.841215 0.508812 0.124712
0.856336 0.506233 0.123156
0.868162 0.502708 0.121157
0.879011 0.49897 0.119066
0.888334 0.493751 0.114717
0.897627 0.488869 0.110277
0.904356 0.48368 0.104555
0.910643 0.478233 0.0985122
0.916228 0.474159 0.0945907
0.921401 0.46952 0.0907759
0.0294652 0.342901 0.0949111
0.0326848 0.342779 0.094728
0.0393072 0.343084 0.094316
0.0469215 0.344228 0.0941634
0.0559701 0.347051 0.0946517
0.0661479 0.351034 0.0955825
0.0784009 0.357992 0.0991379
0.0927901 0.368277 0.106722
0.118059 0.38294 0.115846
0.165591 0.405112 0.126207
0.228534 0.429252 0.137011
0.314992 0.456794 0.147585
0.397177 0.482246 0.152911
0.474128 0.505333 0.152407
0.546593 0.52752 0.150912
0.613764 0.547173 0.149386
0.667048 0.558099 0.148943
0.712871 0.564538 0.149935
0.748348 0.565606 0.151858
0.776562 0.564645 0.153262
0.801251 0.562829 0.154421
0.821393 0.560174 0.155261
0.839582 0.556786 0.155642
0.854826 0.554391 0.15491
0.868757 0.550896 0.152712
0.880156 0.546883 0.150454
0.890867 0.542824 0.14818
0.899672 0.536294 0.142535
0.908873 0.533013 0.139101
0.915541 0.527825 0.13434
0.921492 0.521965 0.129076
0.92755 0.519341 0.126268
0.933257 0.51603 0.122835
0.0409705 0.368215 0.100298
0.0435187 0.367987 0.0999924
0.050309 0.368536 0.0995956
0.0578622 0.369467 0.0993973
0.0679484 0.372641 0.100237
0.0795911 0.377172 0.10164
0.091783 0.383154 0.104952
0.10544 0.392706 0.112642
0.127016 0.405203 0.121035
0.171725 0.426169 0.131212
0.23328 0.450614 0.142885
0.316915 0.478157 0.1552
0.398703 0.50396 0.162768
0.479881 0.528572 0.165515
0.554803 0.551522 0.165423
0.625803 0.573144 0.16434
0.682078 0.589029 0.16434
0.728496 0.598795 0.166598
0.762692 0.601617 0.170748
0.790356 0.603311 0.175708
0.814572 0.604074 0.180621
0.83386 0.602502 0.183642
0.85211 0.601083 0.186801
0.866865 0.599008 0.187076
0.880018 0.596429 0.185916
0.891676 0.593332 0.184237
0.902831 0.590158 0.182452
0.912276 0.586313 0.178561
0.920928 0.5823 0.173999
0.927855 0.577737 0.17026
0.934035 0.573114 0.167041
0.940352 0.571359 0.165118
0.94667 0.569558 0.162585
0.062089 0.398291 0.110292
0.0642405 0.397894 0.109957
0.0717174 0.398474 0.10959
0.0796674 0.39939 0.109346
0.0898299 0.402258 0.109804
0.102144 0.406973 0.110872
0.115709 0.413169 0.113649
0.132204 0.422614 0.121279
0.155993 0.435233 0.129961
0.192554 0.451942 0.13959
0.248234 0.474845 0.151202
0.323354 0.500938 0.162768
0.402258 0.526482 0.172122
0.487449 0.552071 0.178943
0.566888 0.576577 0.181643
0.638926 0.598657 0.182574
0.694224 0.615824 0.184833
0.738811 0.627054 0.188067
0.773114 0.632822 0.192798
0.80058 0.636469 0.198627
0.824506 0.639063 0.204929
0.842985 0.639124 0.210452
0.859922 0.638636 0.216083
0.874205 0.637049 0.21912
0.887312 0.634745 0.220813
0.898909 0.631937 0.220569
0.909911 0.629236 0.219745
0.918685 0.624796 0.215854
0.926574 0.620127 0.2112
0.933379 0.617792 0.209369
0.939635 0.616358 0.208591
0.945846 0.615076 0.207599
0.952071 0.614176 0.20679
0.0841993 0.42884 0.120409
0.0858473 0.428397 0.120043
0.0934157 0.428473 0.119219
0.101244 0.428946 0.118639
0.111406 0.431464 0.118654
0.124453 0.436347 0.119265
0.139895 0.443397 0.121798
0.159945 0.453986 0.12987
0.186526 0.466804 0.138842
0.221912 0.482383 0.148943
0.270787 0.50132 0.159396
0.339376 0.52578 0.170947
0.414923 0.550591 0.182071
0.49958 0.576165 0.192523
0.578729 0.600732 0.197848
0.650233 0.622705 0.200763
0.704982 0.641169 0.205493
0.748287 0.653803 0.210117
0.781964 0.661509 0.215183
0.80911 0.66688 0.222141
0.832181 0.670115 0.229129
0.850568 0.671534 0.236561
0.86688 0.672145 0.244282
0.881056 0.671077 0.249622
0.893767 0.669001 0.253391
0.905165 0.666835 0.255192
0.915267 0.663798 0.25449
0.923812 0.66038 0.252415
0.931395 0.656977 0.249744
0.938125 0.655604 0.248753
0.944396 0.655726 0.24918
0.950515 0.654826 0.248692
0.956542 0.653788 0.248112
0.106783 0.458656 0.129381
0.107851 0.458213 0.129061
0.115053 0.457755 0.128023
0.122881 0.457908 0.127138
0.133501 0.460365 0.126802
0.147906 0.465614 0.126833
0.165042 0.473167 0.12874
0.188144 0.485313 0.137499
0.219364 0.499321 0.14696
0.261402 0.516381 0.157565
0.309972 0.533303 0.168109
0.373144 0.554864 0.180682
0.441245 0.57702 0.193576
0.518288 0.601724 0.207721
0.591089 0.624765 0.215564
0.659556 0.646128 0.221057
0.712428 0.664576 0.227848
0.75436 0.677699 0.233936
0.788373 0.687556 0.241154
0.815 0.693339 0.248661
0.837293 0.697246 0.256825
0.856001 0.699031 0.264622
0.872297 0.69955 0.272236
0.886427 0.699168 0.279026
0.898619 0.697597 0.284291
0.909438 0.695216 0.286946
0.918807 0.69189 0.286732
0.927199 0.689174 0.286427
0.934737 0.687694 0.286809
0.941558 0.687358 0.287831
0.947692 0.687449 0.288701
0.953811 0.687526 0.289494
0.959915 0.687861 0.290455
0.133059 0.488655 0.138857
0.133394 0.48806 0.138567
0.140551 0.487877 0.13785
0.148379 0.487831 0.136934
0.160204 0.490028 0.136324
0.17998 0.496483 0.136248
0.20267 0.505226 0.137972
0.228672 0.517754 0.146746
0.261555 0.531807 0.156374
0.305028 0.549035 0.167544
0.351614 0.564767 0.178347
0.409247 0.584009 0.191287
0.470344 0.604303 0.205524
0.538521 0.627039 0.221729
0.60557 0.648707 0.232456
0.670436 0.669703 0.241596
0.720394 0.687419 0.250431
0.761074 0.701076 0.258274
0.793713 0.711818 0.266773
0.819821 0.718471 0.275013
0.842329 0.72311 0.28455
0.860975 0.724971 0.292226
0.877043 0.724895 0.299062
0.890929 0.724132 0.305638
0.902571 0.722393 0.311345
0.913008 0.720043 0.315084
0.921904 0.717311 0.316899
0.930053 0.715557 0.3187
0.937484 0.71545 0.321202
0.944198 0.715816 0.323522
0.950393 0.716884 0.325978
0.956481 0.717815 0.327947
0.962478 0.718578 0.329351
0.16553 0.520897 0.15024
0.164858 0.520226 0.14995
